X: 25285
T: Man Of The House, The
R: reel
M: 4/4
K: Dmajor
|E2 BE GA B2|E2 BG AGFD|E2 BE GABc|dBAd BAGF|
(3EEE BE GA (3BBB|E2 BG AGFD|E2 BE GABc|dBAd BAGF|
efge fgaf|gfed edBA|efge fgaf|gfed Be e2|
ef (3gfe fgaf|gfed efga|bgaf gfed|edBA GEED|

